X:74
T:Shenandoah Falls
S:Bernie Waugh
R:Reel
M:4/4
L:1/8
K:A
|:cd|\
"A"e2 ef edcB|ABcA "D"d3 d|"A"cBcd "E"cBAc|"A"BAFD E2 cd|
e2 ef edcB|AB (3cBA "D"d2 d2|"A"cBAc "E"BAGB|"A"A3 B A2:|
|:G2|\
"Bm"F4 B4|BABA- AA B2|"A"z2 cA B\cAB|cABc- cB A2|
"Bm"F4 B4|BcBA Bfed|"D"cBAc "E"BAGB|"A"A4 A2:|

